icon-themes/breeze_svg/cmd/sc_connectorcircleend.svg

<svg viewBox="0 0 16 16" xmlns="http://www.w3.org/2000/svg">/&gt;<path d="m4 3v1h1 3v8 1h.5 2.5.09375c.20384.586412.750412 1 1.40625 1 .828427 0 1.5-.671573 1.5-1.5s-.671573-1.5-1.5-1.5c-.655838 0-1.20241.413588-1.40625 1h-.09375-2v-9h-1-.5-2.5zm8.5 9c.276142 0 .5.223858.5.5s-.223858.5-.5.5-.5-.223858-.5-.5.223858-.5.5-.5z" fill="#4d4d4d"/></svg>

<svg xmlns="http://www.w3.org/2000/svg" viewBox="0 0 16 16">
     />
 <path 
     style="fill:#4d4d4d" 
     d="M 4 3 L 4 4 L 5 4 L 8 4 L 8 12 L 8 13 L 8.5 13 L 11 13 L 11.09375 13 C 11.29759 13.586412 11.844162 14 12.5 14 C 13.328427 14 14 13.328427 14 12.5 C 14 11.671573 13.328427 11 12.5 11 C 11.844162 11 11.29759 11.413588 11.09375 12 L 11 12 L 9 12 L 9 3 L 8 3 L 7.5 3 L 5 3 L 4 3 z M 12.5 12 C 12.776142 12 13 12.223858 13 12.5 C 13 12.776142 12.776142 13 12.5 13 C 12.223858 13 12 12.776142 12 12.5 C 12 12.223858 12.223858 12 12.5 12 z "
     />
 </svg>
